svgs/light/window-frame.svg

<svg xmlns="http://www.w3.org/2000/svg" viewBox="0 0 512 512"><!-- Font Awesome Pro 6.0.0-alpha2 by @fontawesome - https://fontawesome.com License - https://fontawesome.com/license (Commercial License) --><path d="M496 480H480V64C480 28.652 451.346 0 416 0H96C60.654 0 32 28.652 32 64V480H16C7.164 480 0 487.162 0 496C0 504.836 7.164 512 16 512H496C504.836 512 512 504.836 512 496C512 487.162 504.836 480 496 480ZM240 480H64V288H240V480ZM240 256H64V64C64 46.326 78.326 32 96 32H240V256ZM448 480H272V288H448V480ZM448 256H272V32H416C433.674 32 448 46.326 448 64V256Z"/></svg>

<svg xmlns="http://www.w3.org/2000/svg" viewBox="0 0 512 512"><!--! Font Awesome Pro 6.3.0 by @fontawesome - https://fontawesome.com License - https://fontawesome.com/license (Commercial License) Copyright 2023 Fonticons, Inc. --><path d="M496 480H480V64c0-35.35-28.65-64-64-64H96C60.65 0 32 28.65 32 64v416H16C7.164 480 0 487.2 0 496C0 504.8 7.164 512 16 512h480c8.836 0 16-7.164 16-16C512 487.2 504.8 480 496 480zM240 480H64V288h176V480zM240 256H64V64c0-17.67 14.33-32 32-32h144V256zM448 480h-176V288H448V480zM448 256h-176V32H416c17.67 0 32 14.33 32 32V256z"/></svg>
